X:1
T: Pomander Jig
C:
R:Jig
Q:180
K:F
M:6/8
L:1/16
|:c2|A2B2c2 F4A2|c4A2 d2c2c2|c2B2B2 e2f2g2|f2e2d2 c2=B2_B2|
A2B2c2 F4A2|c4A2 d2c2c2|c2B2B2 e2f2g2|f6f4:|
|:e2|d4d2 d2e2f2|e2c2c2 c2d2_e2|d4B2 B2c2d2|c2f2A2 A2G2F2|
A2B2c2 F4A2|c4A2 d2c2c2|c2B2B2 e2f2g2|f6f4:|
